X: 847
T: Alborada De Santiago
R: polka
M: 2/4
K: Bdorian
D4|:d>c B/c/d/B/|A2 F2|G>F E/F/G/E/|F2 D2|E/F/E/D/ C/D/E/G/|F/G/F/E/ D/E/F/A/|
G/F/G/A/ B/d/c/B/|A2 GA|d/e/d/c/ B/A/G/F/|E2 E/F/F/G/|A/B/A/G/ F/G/F/E/|
D4|E/!3!F/E/D/C/ D/E/F/G/|A/!3!B/A/G/F/ G/A/B/c/|A4|d/!3!e/d/c/B/ A/!3!B/A/G/F/|E/!3!F/E/D/C/ D2|1 D4:|2 DEF F>EF||TA4|A>BA G>FE|
D4|d4|d>c B/A/G/F/|E3 E>FG|G>AG E>FG|G>AG G>FE|D4
D/E/D/C/ D/E/F/G/|A/B/A/G/ F/G/A/F/|E/G/F/A/ G/B/A/c/|d4|d/e/d/c/ A/F/D/F/
A/B/A/F/ D/F/E/G/|F/A/G/B/ AG/A/|d/!3!e/d/c/B/ A/B/A/G/F/|E/!3!F/E/D/C/ D2|
d/e!3!/d/c/B/ A/!3!B/A/G/F/|E/F!3!/E/D/C/ DF|TA4|TA4|Hdƒ||

